X:1
T:Come and See, 10.10.7.7.10
T:Carey Bonner
T:Come and See, 10.10.7.7.10
T:Public Domain
C:Carey Bonner
Z:Public Domain
%%score ( 1 2 ) ( 3 4 )
L:1/8
M:4/4
K:Eb
V:1 treble 
V:2 treble 
V:3 bass 
V:4 bass 
V:1
 [B,E]3 [B,E] [DF]2 [EG]2 | [FA]2 [DB]2 [EG]4 | [=Ec]4 [EB]4 | [FA]8 | [=EG]3 [EG] [FA]2 F2 | %5
 [EB]2 [DA]2 [EG]2 [FB]2 | [Fd]4 F2 E2 | [DB]8 | E2 z e [Fd]2 [Dc]2 | [EB]2 [EG]2 [FB]4 | %10
 E2 z e [Ad]2 [Dc]2 | [EB]2 [EG]2 E2 D2 | [EG]3 [EG] [EA]2 [EB]2 | [Ec]2 [Fd]2 e2 E2 | %14
 [EG]4 [DF]4 | E8 |] %16
V:2
 x8 | x8 | x8 | x8 | x6 F2 | x8 | x4 c4 | x8 | e3 G2 x3 | x8 | e3 G2 x3 | x4 F4 | x8 | x4 E4 | x8 | %15
 E8 |] %16
V:3
 E,2 z B, [F,B,]2 [E,B,]2 | [D,B,]2 [B,,B,]2 E,2 _D,2 | [C,G,]4 [C,C]4 | [F,C]8 | %4
 [C,C]3 [C,C] [F,C]2 [A,C]2 | [G,B,]2 [F,B,]2 E,2 D,2 | [F,B,]4 [F,=A,]4 | B,4 A,4 | %8
 G,2 z B, B,2 [F,A,]2 | [G,B,]2 [E,B,]2 [D,B,]4 | [C,C]3 [C,C] [F,B,]2 [A,B,]2 | %11
 [G,B,]2 [E,B,]2 [B,,B,]4 | [E,B,]3 [E,_D] [A,C]2 [G,B,]2 | A,2 [F,_A,]2 [G,B,]2 [=A,C]2 | %14
 B,4 [B,,A,]4 | [E,G,]8 |] %16
V:4
 G,3 G,2 x3 | x4 B,4 | x8 | x8 | x8 | x4 B,4 | x8 | B,8 | B,3 (E,2 B,2) x | x8 | x8 | x8 | x8 | %13
 =A,2 x6 | B,4 x4 | x8 |] %16

